packages/core/src/svgs/tokens/branded/GO.svg

<svg width="24" height="24" viewBox="0 0 24 24" fill="none" xmlns="http://www.w3.org/2000/svg">
<path d="M21.9988 12.0636C21.9988 4.72702 15.2933 1.71488 11.7686 2.0211C11.1187 2.0211 10.375 2.45229 10.375 3.23346C10.375 4.01461 10.8313 4.51455 12.9811 4.72702C14.7933 4.902 16.5119 6.2706 16.7931 6.55181C17.2181 6.96427 17.2743 7.52046 17.0617 7.9704C16.9464 8.20231 16.7679 8.39693 16.5469 8.53181C16.3257 8.66669 16.0709 8.73637 15.8119 8.73282C15.2245 8.75155 15.0308 8.65157 14.1622 8.10163C13.469 7.5964 12.6259 7.33887 11.7686 7.37047C8.80028 7.46421 7.00049 9.73889 7.00049 12.0699C7.04406 13.3073 7.56483 14.48 8.45366 15.342C9.34252 16.2041 10.5305 16.6886 11.7686 16.6943C12.646 16.6908 13.5048 16.4426 14.2488 15.9779C14.9929 15.5132 15.5926 14.8502 15.9807 14.0635C16.2557 13.5009 15.8682 13.2636 15.6432 13.251H11.7686C11.3 13.251 10.375 13.0949 10.375 12.0636C10.375 11.0388 11.1875 10.7513 11.6499 10.7513H18.3992C18.9991 10.795 19.2115 11.1887 19.2429 11.4137C19.2678 16.7069 15.9807 18.288 14.7371 18.788C13.6997 19.2129 12.6374 19.4753 11.5061 19.4753C10.8813 19.4753 10.3189 19.944 10.3813 20.8002C10.3918 21.1015 10.5107 21.3887 10.7163 21.6092C10.9219 21.8298 11.2002 21.9685 11.5 22C19.5928 22 21.9988 15.3445 21.9988 12.0636Z" fill="white"/>
<path d="M7.62558 5.75193C8.31586 5.75193 8.87543 5.19236 8.87543 4.50208C8.87543 3.8118 8.31586 3.25223 7.62558 3.25223C6.9353 3.25223 6.37573 3.8118 6.37573 4.50208C6.37573 5.19236 6.9353 5.75193 7.62558 5.75193Z" fill="#008ACB"/>
<path d="M4.50058 8.87654C5.19086 8.87654 5.75045 8.31696 5.75045 7.6267C5.75045 6.93642 5.19086 6.37683 4.50058 6.37683C3.81032 6.37683 3.25073 6.93642 3.25073 7.6267C3.25073 8.31696 3.81032 8.87654 4.50058 8.87654Z" fill="#008ACB"/>
<path d="M3.25107 13.251C3.94135 13.251 4.50092 12.6915 4.50092 12.0012C4.50092 11.311 3.94135 10.7513 3.25107 10.7513C2.56079 10.7513 2.00122 11.311 2.00122 12.0012C2.00122 12.6915 2.56079 13.251 3.25107 13.251Z" fill="#008ACB"/>
<path d="M4.50058 17.6255C5.19086 17.6255 5.75045 17.066 5.75045 16.3757C5.75045 15.6854 5.19086 15.1258 4.50058 15.1258C3.81032 15.1258 3.25073 15.6854 3.25073 16.3757C3.25073 17.066 3.81032 17.6255 4.50058 17.6255Z" fill="#008ACB"/>
<path d="M7.62558 20.7502C8.31586 20.7502 8.87543 20.1906 8.87543 19.5003C8.87543 18.81 8.31586 18.2505 7.62558 18.2505C6.9353 18.2505 6.37573 18.81 6.37573 19.5003C6.37573 20.1906 6.9353 20.7502 7.62558 20.7502Z" fill="#008ACB"/>
</svg>

<svg xmlns="http://www.w3.org/2000/svg" width="24" height="24" fill="none" viewBox="0 0 24 24">
    <path fill="#fff" d="M21.999 12.064c0-7.337-6.706-10.35-10.23-10.043-.65 0-1.394.431-1.394 1.212 0 .782.456 1.282 2.606 1.494 1.812.175 3.53 1.544 3.812 1.825.425.412.481.968.269 1.418a1.38 1.38 0 0 1-1.25.763c-.587.019-.781-.081-1.65-.631a3.83 3.83 0 0 0-2.393-.732C8.8 7.464 7 9.74 7 12.07a4.793 4.793 0 0 0 4.769 4.624 4.72 4.72 0 0 0 4.212-2.63c.275-.563-.113-.8-.338-.813H11.77c-.469 0-1.394-.156-1.394-1.187 0-1.025.813-1.313 1.275-1.313h6.75c.6.044.812.438.843.663.025 5.293-3.262 6.874-4.506 7.374-1.037.425-2.1.687-3.23.687-.626 0-1.188.469-1.126 1.325A1.25 1.25 0 0 0 11.5 22c8.093 0 10.499-6.655 10.499-9.936"/>
    <path fill="#008ACB" d="M7.626 5.752a1.25 1.25 0 1 0 0-2.5 1.25 1.25 0 0 0 0 2.5M4.5 8.877a1.25 1.25 0 1 0 0-2.5 1.25 1.25 0 0 0 0 2.5m-1.249 4.374a1.25 1.25 0 1 0 0-2.5 1.25 1.25 0 0 0 0 2.5M4.5 17.626a1.25 1.25 0 1 0 0-2.5 1.25 1.25 0 0 0 0 2.5m3.126 3.124a1.25 1.25 0 1 0 0-2.5 1.25 1.25 0 0 0 0 2.5"/>
</svg>
